X: 09056
T: JULIE ANDERSON
C: Bob McQuillen 18 Apr 92
B: Bob's Note Book 9 #56
%R: jig
Z: 2018 John Chambers <jc:trillian.mit.edu>
M: 6/8
L: 1/8
K: D
fe \
| dBd AFE | DFA A2d | "G"Bdd "Bm"Ade | "G6"faf "A7"ecA |
| dBd AFE | DFA BAF | ABd cBc | d3- d :|
|: fg \
| afd dfg | aba fdf | afd dcd | egf ede |
| fdB AFA | dBd A2A | Bgf edc | d3- d :|
%%begintext align
%% Have you ever heard of Rollinsford
%% NH? I never had until Julie showed up, and I found out that's where
%% she lived. It's over near the coast, and it sure must be a nice place
%% if she came from there! Julie loves to dance, and I enjoy seeing
%% her on 1st Saturdays in Peterborough, where Steve Zakon calls
%% each month. I sure hope you like dancing to this tune, Julie!
%%endtext

%%sep 1 1 500

%%sep 1 1 500

